lib/brands/icons/tripadvisor.svg

<svg xmlns="http://www.w3.org/2000/svg" fill="none" aria-hidden="true" viewBox="0 0 48 48"><g id="tripadvisor-Icon"><path id="bg" fill="#00AF87" d="M24 3C12.4172 3 3 12.4172 3 24C3 35.5828 12.4172 45 24 45C35.5828 45 45 35.5828 45 24C45 12.4172 35.5828 3 24 3Z"/><g id="tripadvisor"><path fill="white" d="M10 17C10 16.4091 10.4545 16 11 16C11.5455 16 12 16.4091 12 17C12 17.5909 11.5909 18 11 18C10.4091 18 10 17.5455 10 17Z"/><path fill="white" fill-rule="evenodd" d="M11 14C9.36364 14 8 15.2273 8 17C8 18.6364 9.22727 20 11 20C12.7727 20 14 18.7727 14 17C14 15.2273 12.6364 14 11 14ZM11 15C9.90909 15 9 15.8182 9 17C9 18.0909 9.81818 19 11 19C12.1818 19 13 18.1818 13 17C13 15.8182 12.0909 15 11 15Z" clip-rule="evenodd"/><path fill="white" d="M22 17C22 16.4091 21.5455 16 21 16C20.4545 16 20 16.4091 20 17C20 17.5909 20.4091 18 21 18C21.5909 18 22 17.5455 22 17Z"/><path fill="white" fill-rule="evenodd" d="M21 14C22.6364 14 24 15.2273 24 17C24 18.6364 22.7727 20 21 20C19.2273 20 18 18.7727 18 17C18 15.2273 19.3636 14 21 14ZM21 15C22.0909 15 23 15.8182 23 17C23 18.0909 22.1818 19 21 19C19.8182 19 19 18.1818 19 17C19 15.8182 19.9091 15 21 15Z" clip-rule="evenodd"/><path fill="white" fill-rule="evenodd" d="M9 11.9838C10.8511 10.8127 13.4311 10 16 10C18.5689 10 21.1489 10.8127 23 11.9838L26 12L24.9345 13.986C25.5389 14.7794 26 15.9044 26 17C26 19.7578 23.65 22 20.9678 22C19.3811 22 17.9444 21.0956 17 20L16 22L15 20C14.0556 21.0956 12.6189 22 11.0322 22C8.34998 22 6 19.7578 6 17C6 15.9044 6.46109 14.7794 7.06554 13.986L6 12L9 11.9838ZM16 16.5C16.1889 13.9689 18.3989 12.0378 20.9678 12C19.57 11.3956 17.7756 11 16 11C14.2244 11 12.43 11.3956 11.0322 12C13.6011 12.0378 15.8111 13.9689 16 16.5ZM11.0322 21.0178C8.84109 21.0178 7 19.1911 7 17C7 14.8089 8.84109 12.966 11.0322 12.966C13.2233 12.966 14.9989 14.8089 14.9989 17C14.9989 19.1533 13.2233 21.0178 11.0322 21.0178ZM20.9678 21.0178C23.1589 21.0178 25 19.1911 25 17C25 14.8089 23.1589 12.966 20.9678 12.966C18.7767 12.966 17.0011 14.8089 17.0011 17C17.0011 19.1533 18.7767 21.0178 20.9678 21.0178Z" clip-rule="evenodd"/></g></g></svg>

<svg xmlns="http://www.w3.org/2000/svg" fill="none" aria-hidden="true" viewBox="0 0 48 48"><path fill="#00AF87" d="M24 3C12.417 3 3 12.417 3 24s9.417 21 21 21 21-9.417 21-21S35.583 3 24 3Z"/><g fill="#fff"><path d="M10 17c0-.59.454-1 1-1s1 .41 1 1c0 .59-.41 1-1 1a.98.98 0 0 1-1-1Z"/><path fill-rule="evenodd" d="M11 14c-1.636 0-3 1.227-3 3 0 1.636 1.227 3 3 3s3-1.227 3-3-1.364-3-3-3Zm0 1c-1.09 0-2 .818-2 2 0 1.09.818 2 2 2s2-.818 2-2-.91-2-2-2Z" clip-rule="evenodd"/><path d="M22 17c0-.59-.454-1-1-1a.98.98 0 0 0-1 1c0 .59.41 1 1 1 .59 0 1-.454 1-1Z"/><path fill-rule="evenodd" d="M21 14c1.636 0 3 1.227 3 3 0 1.636-1.227 3-3 3s-3-1.227-3-3 1.364-3 3-3Zm0 1c1.09 0 2 .818 2 2 0 1.09-.818 2-2 2s-2-.818-2-2 .91-2 2-2Z" clip-rule="evenodd"/><path fill-rule="evenodd" d="M9 11.984C10.851 10.813 13.431 10 16 10s5.149.813 7 1.984L26 12l-1.066 1.986C25.54 14.779 26 15.904 26 17c0 2.758-2.35 5-5.032 5-1.587 0-3.024-.904-3.968-2l-1 2-1-2c-.944 1.096-2.381 2-3.968 2C8.35 22 6 19.758 6 17c0-1.096.461-2.22 1.066-3.014L6 12l3-.016Zm7 4.516c.189-2.531 2.399-4.462 4.968-4.5-1.398-.604-3.192-1-4.968-1-1.776 0-3.57.396-4.968 1 2.57.038 4.78 1.969 4.968 4.5Zm-4.968 4.518C8.842 21.018 7 19.19 7 17s1.841-4.034 4.032-4.034S15 14.809 15 17c0 2.153-1.776 4.018-3.967 4.018Zm9.936 0C23.158 21.018 25 19.19 25 17s-1.841-4.034-4.032-4.034S17 14.809 17 17c0 2.153 1.776 4.018 3.967 4.018Z" clip-rule="evenodd"/></g></svg>
